src/images/icons/feature-decentralized.svg

<svg width="134px" height="134px" viewBox="0 0 134 134" xmlns="http://www.w3.org/2000/svg">
    <g stroke="none" stroke-width="1" fill="none" fill-rule="evenodd">
        <path d="M52,46 C52.5522847,46 53,46.4477153 53,47 L53,50 C53,50.3863553 52.7808964,50.7215362 52.4601654,50.8880665 L54.262,54 L58.428,54 L60.2324141,51.6409842 C60.0873241,51.4674238 60,51.2439097 60,51 L60,48 C60,47.4477153 60.4477153,47 61,47 L64,47 C64.5522847,47 65,47.4477153 65,48 L65,51 C65,51.5522847 64.5522847,52 64,52 L61.217,52 L59.5578279,54.1699199 C59.8245493,54.3495146 60,54.654268 60,55 L60,60.521 L63.1991541,63.0460463 C63.2941039,63.016131 63.3951682,63 63.5,63 L66.5,63 C66.845732,63 67.1504854,63.1754507 67.3300801,63.4421721 L70,61.364 L70,56 C70,55.4477153 70.4477153,55 71,55 L74.764,55 L75.431,52 L75,52 C74.4477153,52 74,51.5522847 74,51 L74,48 C74,47.4477153 74.4477153,47 75,47 L78,47 C78.5522847,47 79,47.4477153 79,48 L79,51 C79,51.5522847 78.5522847,52 78,52 L76.456,52 L75.789,55 L77,55 C77.5522847,55 78,55.4477153 78,56 L78,62 C78,62.3855419 77.7818179,62.7201247 77.4621897,62.8870125 L79.16,66 L81,66 C81.5522847,66 82,66.4477153 82,67 L82,68.654 L86,67.765 L86,66 C86,65.4477153 86.4477153,65 87,65 L90,65 C90.5522847,65 91,65.4477153 91,66 L91,69 C91,69.5522847 90.5522847,70 90,70 L87,70 C86.4477153,70 86,69.5522847 86,69 L86,68.789 L82,69.678 L82,70 C82,70.5522847 81.5522847,71 81,71 L79.966,71 L75.7833908,76.3784075 C75.9189939,76.549079 76,76.7650795 76,77 L76,80 C76,80.5522847 75.5522847,81 75,81 L72,81 C71.4477153,81 71,80.5522847 71,80 L71,78.59 L66,77.756 L66,80 C66,80.2216231 65.9279049,80.4264075 65.8058882,80.5921796 L67.947,83 L70,83 C70.5522847,83 71,83.4477153 71,84 L71,87 C71,87.5522847 70.5522847,88 70,88 L67,88 C66.4477153,88 66,87.5522847 66,87 L66,84 C66,83.5664487 66.2759032,83.1973381 66.6617085,83.0586692 L64.831,81 L59,81 C58.7752742,81 58.5678619,80.9258721 58.4008809,80.8007342 L57,82.401 L57,85 C57,85.5522847 56.5522847,86 56,86 L53,86 C52.4477153,86 52,85.5522847 52,85 L52,82 C52,81.4477153 52.4477153,81 53,81 L56,81 C56.2583423,81 56.4938038,81.097964 56.6712629,81.2587704 L58,79.739 L58,74 C58,73.4477153 58.4477153,73 59,73 L62.239,73 L64.057,68 L63.5,68 C62.9477153,68 62.5,67.5522847 62.5,67 L62.5,64 C62.5,63.9266879 62.5078891,63.8552183 62.5228647,63.786394 L59.7826227,61.6225581 C59.5994086,61.8525727 59.316921,62 59,62 L53.478,62 L50.7977628,65.3969363 C50.9246978,65.5645902 51,65.7735012 51,66 L51,69 C51,69.5522847 50.5522847,70 50,70 L47,70 C46.4477153,70 46,69.5522847 46,69 L46,66 C46,65.4477153 46.4477153,65 47,65 L49.836,65 L52.3764773,61.7818534 C52.1470152,61.5986183 52,61.3164778 52,61 L52,59.076 L48,59.647 L48,61 C48,61.5522847 47.5522847,62 47,62 L44,62 C43.4477153,62 43,61.5522847 43,61 L43,58 C43,57.4477153 43.4477153,57 44,57 L47,57 C47.5522847,57 48,57.4477153 48,58 L48,58.637 L52,58.066 L52,55 C52,54.4477153 52.4477153,54 53,54 L53.106,54 L51.369,51 L49,51 C48.4477153,51 48,50.5522847 48,50 L48,47 C48,46.4477153 48.4477153,46 49,46 L52,46 Z M82,79 C82.5522847,79 83,79.4477153 83,80 L83,83 C83,83.5522847 82.5522847,84 82,84 L79,84 C78.4477153,84 78,83.5522847 78,83 L78,80 C78,79.4477153 78.4477153,79 79,79 L82,79 Z M70.1454752,62.5196897 L67.5,64.577 L67.5,67 C67.5,67.5522847 67.0522847,68 66.5,68 L65.122,68 L63.303,73 L65,73 C65.5522847,73 66,73.4477153 66,74 L66,76.743 L71,77.576 L71,77 C71,76.4477153 71.4477153,76 72,76 L74.81,76 L78.698,71 L78,71 C77.4477153,71 77,70.5522847 77,70 L77,67 C77,66.4871642 77.3860402,66.0644928 77.8833789,66.0067277 L78.021,66 L76.385,63 L71,63 C70.6832903,63 70.4009682,62.8527693 70.217744,62.6230181 L70.1454752,62.5196897 Z M58,67 C58.5522847,67 59,67.4477153 59,68 L59,71 C59,71.5522847 58.5522847,72 58,72 L55,72 C54.4477153,72 54,71.5522847 54,71 L54,68 C54,67.4477153 54.4477153,67 55,67 L58,67 Z" fill="#C2D0DA"></path>
    </g>
</svg>

<svg xmlns="http://www.w3.org/2000/svg" viewBox="0 0 134 134">
  <path
    d="M52 46a1 1 0 011 1v3a1 1 0 01-.54.888L54.262 54h4.166l1.804-2.359A.996.996 0 0160 51v-3a1 1 0 011-1h3a1 1 0 011 1v3a1 1 0 01-1 1h-2.783l-1.66 2.17c.268.18.443.484.443.83v5.521l3.2 2.525a1 1 0 01.3-.046h3c.346 0 .65.175.83.442L70 61.364V56a1 1 0 011-1h3.764l.667-3H75a1 1 0 01-1-1v-3a1 1 0 011-1h3a1 1 0 011 1v3a1 1 0 01-1 1h-1.544l-.667 3H77a1 1 0 011 1v6a1 1 0 01-.538.887L79.16 66H81a1 1 0 011 1v1.654l4-.889V66a1 1 0 011-1h3a1 1 0 011 1v3a1 1 0 01-1 1h-3a1 1 0 01-1-1v-.211l-4 .889V70a1 1 0 01-1 1h-1.034l-4.183 5.378c.136.171.217.387.217.622v3a1 1 0 01-1 1h-3a1 1 0 01-1-1v-1.41l-5-.834V80a.996.996 0 01-.194.592L67.947 83H70a1 1 0 011 1v3a1 1 0 01-1 1h-3a1 1 0 01-1-1v-3a1 1 0 01.662-.941L64.83 81H59a.996.996 0 01-.6-.2L57 82.402V85a1 1 0 01-1 1h-3a1 1 0 01-1-1v-3a1 1 0 011-1h3c.258 0 .494.098.671.259L58 79.739V74a1 1 0 011-1h3.239l1.818-5H63.5a1 1 0 01-1-1v-3c0-.073.008-.145.023-.214l-2.74-2.163A.998.998 0 0159 62h-5.522l-2.68 3.397A.996.996 0 0151 66v3a1 1 0 01-1 1h-3a1 1 0 01-1-1v-3a1 1 0 011-1h2.836l2.54-3.218A.998.998 0 0152 61v-1.924l-4 .571V61a1 1 0 01-1 1h-3a1 1 0 01-1-1v-3a1 1 0 011-1h3a1 1 0 011 1v.637l4-.571V55a1 1 0 011-1h.106l-1.737-3H49a1 1 0 01-1-1v-3a1 1 0 011-1h3zm30 33a1 1 0 011 1v3a1 1 0 01-1 1h-3a1 1 0 01-1-1v-3a1 1 0 011-1h3zM70.145 62.52L67.5 64.577V67a1 1 0 01-1 1h-1.378l-1.819 5H65a1 1 0 011 1v2.743l5 .833V77a1 1 0 011-1h2.81l3.888-5H78a1 1 0 01-1-1v-3a1 1 0 01.883-.993l.138-.007-1.636-3H71a.998.998 0 01-.782-.377l-.073-.103zM58 67a1 1 0 011 1v3a1 1 0 01-1 1h-3a1 1 0 01-1-1v-3a1 1 0 011-1h3z"
    fill="#C2D0DA" fill-rule="evenodd" />
</svg>
